X:104
T:Speed The Plough
C:Traditional
M:4/4
L:1/8
Q:1/8=500
K:A
cB|:ABcd efec|eaec efec|dfBd ceAc|Bcdc BGE2|
ABcd efec|eaec efec|dece BeAe|1 EGBG A2cB:|2 EGBG A2fg|
|:a2ag aece|a2gf ecAc|dfBd ceAc|Bcdc BGE2|
c/B/AeA fAe2|fgaf ecAc|dece BeAe|1 EGBG A2fg:|2 EGBG A4|
